X:1
T:The Anniversary Song
M:3/4
Q:1/4=160
K:F
A,6|-A,2_D2D2|E6|-E2_D2A,2|F6|-F2E2D2|A6|
-A4A2|B6|-B2A2G2|A6|-A2G2F2|E6|-E2F2E2|D6|
-D4A,2|A,6|-A,2_D2D2|E6|-E2_D2A,2|F6|-F2E2D2|
A6|-A4A2|B6|-B2A2G2|A6|-A2G2F2|E6|-E2F2E2|
D6|-D6|d6|-d2d2d2|d2d2d2|d2c3=B|c6|B2B2B2|
B2B2B2|B2A3_A|A4A2|G2G2G2|G2G2G2|G2F2E2|D4d2|
B2G2E2|F4E2|D6|-D2||